X:549
T: BACKE BACKE KUCHEN
N: E1830
O: Europa, Mitteleuropa, Deutschland, Sachsen; Thueringen
R: Kinder - Lied
M: 2/4
L: 1/16
K: F
 | c2c2d2d2 | c4A2
A2 | c2c2d2d2 | c4A2z2
c2c2d2d2 | c2c2A2A2
c2c2d2d2 | c2c2A2A2
ccc2A4 | ccc2A4
c2c2A4 | c2c2d2d2 | c2c2A4
f4c2A2 | G2F2F4

